img/scrapy.svg

<svg width="83" height="24" viewBox="0 0 83 24" fill="none" xmlns="http://www.w3.org/2000/svg" class="h-10 w-auto"><path d="M75.3998 22.7644L77.309 17.5233L77.3457 19.0653L73.0225 8.44531H75.3264L78.3921 16.3025H77.8047L80.7878 8.44531H82.9999L77.4742 22.7644H75.3998Z" fill="#15B8A6"/><path d="M68.8244 18.6339C67.8576 18.6339 67.0468 18.4044 66.392 17.9455C65.7373 17.4865 65.2447 16.8624 64.9142 16.073C64.5838 15.2775 64.4186 14.3871 64.4186 13.4019C64.4186 12.4045 64.5838 11.511 64.9142 10.7217C65.2447 9.93227 65.7281 9.31117 66.3645 8.85834C67.007 8.39939 67.7995 8.16992 68.7418 8.16992C69.6781 8.16992 70.4889 8.39939 71.1743 8.85834C71.8657 9.31117 72.4012 9.93227 72.7806 10.7217C73.16 11.5049 73.3497 12.3983 73.3497 13.4019C73.3497 14.3932 73.163 15.2836 72.7897 16.073C72.4165 16.8624 71.8902 17.4865 71.211 17.9455C70.5317 18.4044 69.7362 18.6339 68.8244 18.6339ZM64.0422 22.7644V8.44529H65.9973V15.4029H66.2727V22.7644H64.0422ZM68.4848 16.6512C69.06 16.6512 69.5343 16.5074 69.9076 16.2198C70.2808 15.9322 70.5562 15.5436 70.7337 15.0541C70.9172 14.5584 71.009 14.0077 71.009 13.4019C71.009 12.8022 70.9172 12.2576 70.7337 11.7681C70.5501 11.2724 70.2655 10.8808 69.88 10.5932C69.4945 10.2994 69.005 10.1526 68.4114 10.1526C67.8484 10.1526 67.3895 10.2903 67.0346 10.5656C66.6796 10.8349 66.4165 11.2143 66.2452 11.7038C66.08 12.1872 65.9973 12.7533 65.9973 13.4019C65.9973 14.0444 66.08 14.6105 66.2452 15.1C66.4165 15.5895 66.6827 15.972 67.0437 16.2474C67.4109 16.5166 67.8913 16.6512 68.4848 16.6512Z" fill="#15B8A6"/><path d="M57.1734 18.6339C56.4574 18.6339 55.8516 18.4993 55.3559 18.23C54.8603 17.9546 54.4839 17.5905 54.2269 17.1377C53.976 16.6849 53.8506 16.1862 53.8506 15.6416C53.8506 15.1643 53.9301 14.7359 54.0892 14.3565C54.2483 13.971 54.4931 13.6406 54.8236 13.3652C55.154 13.0837 55.5823 12.8542 56.1086 12.6768C56.5064 12.5483 56.9714 12.432 57.5038 12.328C58.0423 12.2239 58.6236 12.1291 59.2478 12.0434C59.8781 11.9516 60.5359 11.8537 61.2213 11.7497L60.4319 12.1995C60.438 11.5141 60.285 11.0093 59.9729 10.6849C59.6608 10.3606 59.1346 10.1985 58.3941 10.1985C57.9474 10.1985 57.516 10.3025 57.0999 10.5105C56.6838 10.7186 56.3931 11.0766 56.2279 11.5845L54.2086 10.9511C54.4533 10.1128 54.9184 9.43967 55.6038 8.93177C56.2952 8.42387 57.2254 8.16992 58.3941 8.16992C59.2753 8.16992 60.0494 8.31372 60.7164 8.60133C61.3895 8.88894 61.8883 9.36012 62.2126 10.0149C62.39 10.3637 62.4971 10.7217 62.5338 11.0888C62.5706 11.4499 62.5889 11.8445 62.5889 12.2729V18.3585H60.6522V16.2107L60.9734 16.5594C60.5267 17.2754 60.0035 17.8017 59.4038 18.1382C58.8103 18.4687 58.0668 18.6339 57.1734 18.6339ZM57.6139 16.8715C58.1157 16.8715 58.5441 16.7828 58.899 16.6053C59.2539 16.4279 59.5354 16.2107 59.7434 15.9536C59.9576 15.6966 60.1014 15.4549 60.1749 15.2285C60.2911 14.947 60.3554 14.6258 60.3676 14.2647C60.386 13.8976 60.3952 13.6008 60.3952 13.3744L61.0744 13.5763C60.4074 13.6803 59.8352 13.7721 59.3579 13.8517C58.8806 13.9312 58.4706 14.0077 58.128 14.0811C57.7853 14.1485 57.4824 14.2249 57.2192 14.3106C56.9622 14.4024 56.745 14.5095 56.5675 14.6319C56.3901 14.7543 56.2524 14.895 56.1545 15.0541C56.0627 15.2132 56.0168 15.3998 56.0168 15.614C56.0168 15.8588 56.078 16.076 56.2004 16.2657C56.3228 16.4493 56.5002 16.5962 56.7328 16.7063C56.9714 16.8165 57.2651 16.8715 57.6139 16.8715Z" fill="#15B8A6"/><path d="M48.2197 18.3587V8.44544H50.1748V10.8595L49.9362 10.5474C50.0586 10.217 50.2207 9.91713 50.4227 9.64788C50.6307 9.37251 50.8786 9.1461 51.1662 8.96864C51.4109 8.80342 51.6802 8.67491 51.9739 8.58312C52.2737 8.48521 52.5797 8.42708 52.8918 8.40872C53.2039 8.38425 53.5068 8.39648 53.8005 8.44544V10.5107C53.5068 10.425 53.1672 10.3975 52.7816 10.4281C52.4023 10.4587 52.0596 10.5658 51.7536 10.7493C51.4476 10.9146 51.1968 11.1257 51.0009 11.3827C50.8112 11.6397 50.6705 11.9334 50.5787 12.2639C50.4869 12.5882 50.441 12.94 50.441 13.3194V18.3587H48.2197Z" fill="#15B8A6"/><path d="M42.8832 18.6339C41.8613 18.6339 40.9893 18.4075 40.2672 17.9546C39.5452 17.4957 38.9914 16.8715 38.6059 16.0821C38.2265 15.2928 38.0337 14.3993 38.0276 13.4019C38.0337 12.3861 38.2326 11.4866 38.6242 10.7033C39.022 9.91391 39.5849 9.29587 40.3131 8.84916C41.0413 8.39634 41.9072 8.16992 42.9108 8.16992C44.0367 8.16992 44.9883 8.45447 45.7654 9.02356C46.5487 9.58653 47.0596 10.3576 47.2983 11.3366L45.0954 11.9333C44.924 11.4009 44.6395 10.9878 44.2417 10.6941C43.844 10.3943 43.3911 10.2444 42.8832 10.2444C42.308 10.2444 41.8338 10.382 41.4605 10.6574C41.0872 10.9267 40.8119 11.2999 40.6344 11.7772C40.4569 12.2545 40.3682 12.7961 40.3682 13.4019C40.3682 14.3443 40.5793 15.1061 41.0016 15.6875C41.4238 16.2688 42.051 16.5594 42.8832 16.5594C43.4707 16.5594 43.9327 16.4248 44.2692 16.1556C44.6119 15.8863 44.8689 15.4978 45.0403 14.9899L47.2983 15.4947C46.9923 16.5044 46.4569 17.2815 45.692 17.8261C44.9271 18.3646 43.9908 18.6339 42.8832 18.6339Z" fill="#15B8A6"/><path d="M32.3234 18.634C31.3566 18.634 30.4846 18.4657 29.7074 18.1292C28.9364 17.7926 28.3 17.3122 27.7982 16.6881C27.3025 16.0578 26.9874 15.3112 26.8528 14.4484L29.1475 14.0996C29.3433 14.8829 29.7441 15.4887 30.3499 15.917C30.9619 16.3454 31.6656 16.5596 32.4611 16.5596C32.9323 16.5596 33.3759 16.4861 33.792 16.3393C34.2082 16.1924 34.5447 15.9782 34.8017 15.6967C35.0649 15.4153 35.1964 15.0695 35.1964 14.6595C35.1964 14.4759 35.1658 14.3077 35.1046 14.1547C35.0434 13.9956 34.9516 13.8548 34.8293 13.7325C34.713 13.6101 34.56 13.4999 34.3703 13.402C34.1867 13.298 33.9726 13.2093 33.7278 13.1358L30.3132 12.1261C30.0195 12.0405 29.7013 11.9273 29.3586 11.7865C29.0221 11.6397 28.7008 11.4408 28.3948 11.1899C28.095 10.9329 27.8472 10.6086 27.6513 10.2169C27.4617 9.81918 27.3668 9.32963 27.3668 8.7483C27.3668 7.89772 27.581 7.18483 28.0093 6.60962C28.4438 6.02828 29.0251 5.59382 29.7533 5.30621C30.4876 5.0186 31.3015 4.87786 32.1949 4.88398C33.1006 4.8901 33.9083 5.04614 34.6181 5.35211C35.328 5.65195 35.9215 6.08948 36.3989 6.66469C36.8762 7.2399 37.2127 7.93444 37.4085 8.7483L35.0312 9.16135C34.9333 8.69629 34.7436 8.3016 34.4621 7.97727C34.1867 7.64683 33.8471 7.39594 33.4432 7.2246C33.0455 7.05326 32.6202 6.96147 32.1674 6.94924C31.7268 6.94312 31.3168 7.01043 30.9374 7.15117C30.5641 7.2858 30.2612 7.48161 30.0287 7.73862C29.8023 7.99563 29.6891 8.29548 29.6891 8.63816C29.6891 8.96248 29.787 9.22867 29.9828 9.43672C30.1786 9.63866 30.4203 9.80082 30.7079 9.9232C31.0017 10.0395 31.2984 10.1374 31.5983 10.2169L33.9664 10.8778C34.2908 10.9635 34.6549 11.0797 35.0587 11.2266C35.4626 11.3735 35.8512 11.5785 36.2245 11.8416C36.5977 12.1047 36.9037 12.4505 37.1423 12.8788C37.3871 13.3072 37.5095 13.8518 37.5095 14.5127C37.5095 15.198 37.3657 15.8008 37.0781 16.3209C36.7966 16.8349 36.4142 17.2633 35.9307 17.606C35.4473 17.9486 34.8935 18.2056 34.2693 18.377C33.6513 18.5483 33.0027 18.634 32.3234 18.634Z" fill="#15B8A6"/><path d="M11.96 0C18.5654 0 23.9207 5.35462 23.9209 11.96C23.9209 18.5655 18.5655 23.9209 11.96 23.9209C5.35462 23.9207 0 18.5654 0 11.96C0.000238109 5.35476 5.35476 0.000238115 11.96 0ZM15.6455 4.67969C15.1248 4.15913 14.2512 4.2786 13.8896 4.91992L9.72754 12.3086L5.4873 16.5488C5.05294 16.9833 5.05293 17.6876 5.4873 18.1221L6.28125 18.917C6.71572 19.3514 7.42098 19.3514 7.85547 18.917L12.0957 14.6758L19.4834 10.5146C20.1249 10.1532 20.2451 9.27956 19.7246 8.75879L15.6455 4.67969ZM6.35742 16.9414C6.5745 16.7243 6.92822 16.7227 7.14551 16.9395L7.46387 17.2578C7.68105 17.475 7.67995 17.8286 7.46289 18.0459C7.24566 18.263 6.89203 18.265 6.6748 18.0479L6.35645 17.7295C6.13942 17.5124 6.1406 17.1587 6.35742 16.9414Z" fill="#15B8A6"/></svg>

<svg xmlns="http://www.w3.org/2000/svg" width="83" height="24" fill="none" class="h-10 w-auto"><path fill="#15B8A6" d="m75.4 22.764 1.909-5.24.037 1.541-4.324-10.62h2.304l3.066 7.857h-.587l2.983-7.857H83l-5.526 14.32zm-6.576-4.13q-1.45 0-2.432-.689-.982-.688-1.478-1.872-.495-1.194-.495-2.671 0-1.496.495-2.68t1.45-1.864q.964-.688 2.378-.688 1.404 0 2.432.688 1.038.68 1.607 1.864.569 1.174.569 2.68 0 1.487-.56 2.671t-1.579 1.872q-1.02.69-2.387.689m-4.782 4.13V8.445h1.955v6.958h.276v7.361zm4.443-6.113q.863 0 1.423-.431t.826-1.166a4.7 4.7 0 0 0 .275-1.652q0-.9-.275-1.634a2.5 2.5 0 0 0-.854-1.175q-.578-.44-1.469-.44-.845 0-1.376.413-.532.403-.79 1.138-.248.725-.248 1.698 0 .964.248 1.698.257.735.799 1.147.55.405 1.44.404m-11.311 1.983q-1.073 0-1.817-.404a2.86 2.86 0 0 1-1.13-1.092 3.04 3.04 0 0 1-.375-1.496q0-.717.238-1.285.24-.578.735-.992.495-.421 1.285-.688a12 12 0 0 1 1.395-.349q.807-.156 1.744-.285.945-.137 1.973-.293l-.79.45q.01-1.028-.458-1.515t-1.579-.487a2.86 2.86 0 0 0-1.294.313q-.624.312-.872 1.074l-2.02-.634a3.75 3.75 0 0 1 1.396-2.02q1.036-.76 2.79-.761 1.321 0 2.322.431a2.88 2.88 0 0 1 1.497 1.414q.266.523.32 1.074.056.54.056 1.184v6.086h-1.937V16.21l.321.348q-.67 1.074-1.57 1.58-.89.495-2.23.495m.44-1.762q.754 0 1.286-.267.532-.265.844-.651.322-.386.432-.726.174-.422.193-.963.027-.55.027-.89l.68.201q-1.002.156-1.717.276t-1.23.23a8 8 0 0 0-.909.229 2.8 2.8 0 0 0-.651.32 1.4 1.4 0 0 0-.413.423 1.1 1.1 0 0 0-.138.56q0 .367.183.652.184.275.533.44.358.166.88.166m-9.393 1.488V8.445h1.955v2.415l-.239-.313q.184-.495.487-.9.312-.411.743-.678.367-.248.808-.386.45-.147.918-.174.468-.037.908.036v2.066a2.8 2.8 0 0 0-1.018-.083q-.57.046-1.028.321a2.3 2.3 0 0 0-.753.634q-.285.385-.422.88a4 4 0 0 0-.138 1.056v5.04zm-5.337.275q-1.533 0-2.616-.68a4.5 4.5 0 0 1-1.661-1.872q-.57-1.185-.578-2.68.01-1.524.596-2.699.596-1.184 1.69-1.854 1.09-.68 2.597-.68 1.689 0 2.854.855 1.176.845 1.533 2.313l-2.203.596q-.257-.798-.853-1.239-.596-.45-1.359-.45-.863 0-1.422.413-.561.405-.827 1.12-.266.717-.266 1.625 0 1.413.634 2.286.633.87 1.881.871.882 0 1.386-.403.514-.404.771-1.166l2.258.505q-.459 1.515-1.606 2.331-1.147.808-2.809.808m-10.56 0q-1.449 0-2.616-.505a4.94 4.94 0 0 1-1.909-1.44q-.742-.947-.945-2.24l2.294-.35q.294 1.176 1.203 1.818.918.642 2.111.643.707 0 1.331-.22a2.4 2.4 0 0 0 1.01-.643q.394-.422.394-1.037 0-.276-.091-.505-.092-.24-.276-.422a1.7 1.7 0 0 0-.459-.331 3 3 0 0 0-.642-.266l-3.415-1.01a10 10 0 0 1-.954-.34 4 4 0 0 1-.964-.596 3.1 3.1 0 0 1-.744-.973q-.285-.597-.284-1.469 0-1.275.642-2.138.652-.873 1.744-1.304 1.102-.43 2.442-.422 1.358.009 2.423.468 1.065.45 1.78 1.313.717.863 1.01 2.083l-2.377.413a2.6 2.6 0 0 0-.569-1.184 2.66 2.66 0 0 0-1.019-.752 3.43 3.43 0 0 0-2.506-.074q-.56.202-.908.588-.34.385-.34.9 0 .485.294.798.294.303.725.486.44.175.89.294l2.368.66q.487.13 1.093.35t1.166.615q.56.394.917 1.037.367.642.367 1.634 0 1.028-.43 1.808a3.8 3.8 0 0 1-1.148 1.285 5.3 5.3 0 0 1-1.662.771 7.3 7.3 0 0 1-1.946.257M11.96 0c6.605 0 11.96 5.355 11.96 11.96s-5.355 11.96-11.96 11.96S0 18.566 0 11.96 5.355 0 11.96 0m3.685 4.68a1.113 1.113 0 0 0-1.755.24l-4.162 7.389-4.24 4.24a1.113 1.113 0 0 0 0 1.573l.793.795c.435.434 1.14.434 1.574 0l4.24-4.241 7.388-4.161a1.113 1.113 0 0 0 .242-1.756zM6.358 16.94a.56.56 0 0 1 .789-.002l.318.319a.558.558 0 0 1-.79.79l-.318-.318a.56.56 0 0 1 .001-.789"/></svg>
